localPackages/DesignSystem/Sources/DesignSystem/Resources/Assets.xcassets/IconSet/ic-arrows-rotate.imageset/ic-arrows-rotate.svg

<svg width="24" height="24" viewBox="0 0 24 24" fill="none" xmlns="http://www.w3.org/2000/svg">
<g id="ic-arrows-rotate">
<g id="Icon">
<path d="M16.9744 6.38114C14.0277 3.771 9.51848 3.87569 6.69712 6.69521C5.29257 8.09885 4.56158 9.91884 4.50329 11.7583C4.49018 12.1722 4.14382 12.4971 3.72968 12.484C3.31554 12.4709 2.99044 12.1247 3.00356 11.7109C3.07343 9.50545 3.95124 7.31867 5.63612 5.63489C9.04945 2.22378 14.5216 2.12406 18.0553 5.33572V3.83195C18.0553 3.41773 18.3911 3.08195 18.8053 3.08195C19.2195 3.08195 19.5553 3.41773 19.5553 3.83195V6.83114C19.5553 7.41104 19.0852 7.88114 18.5053 7.88114H15.5039C15.0897 7.88114 14.7539 7.54536 14.7539 7.13114C14.7539 6.71693 15.0897 6.38114 15.5039 6.38114H16.9744Z" fill="#0F0F0F"/>
<path d="M21.0058 11.9073C21.0017 11.4933 20.6625 11.1609 20.2481 11.1651C19.8338 11.1692 19.5013 11.5082 19.5054 11.9222C19.5247 13.8674 18.7924 15.816 17.3081 17.2993C14.4867 20.1189 9.97734 20.2235 7.03065 17.6132H8.30177C8.71598 17.6132 9.05177 17.2774 9.05177 16.8632C9.05177 16.449 8.71598 16.1132 8.30177 16.1132H5.30042C4.72052 16.1132 4.25042 16.5833 4.25042 17.1632L4.25042 20.1624C4.25042 20.5766 4.58621 20.9124 5.00042 20.9124C5.41463 20.9124 5.75042 20.5766 5.75042 20.1624L5.75042 18.4719C9.27472 21.8731 14.8909 21.8356 18.3691 18.3596C20.15 16.5799 21.029 14.2387 21.0058 11.9073Z" fill="#0F0F0F"/>
</g>
</g>
</svg>

<svg xmlns="http://www.w3.org/2000/svg" width="24" height="24" viewBox="0 0 24 24">
  <g class="ic-arrows-rotate">
    <g class="Icon">
      <path d="M16.975 6.382a7.507 7.507 0 0 0-10.277.314 7.467 7.467 0 0 0-2.194 5.063.75.75 0 0 1-1.5-.048 8.966 8.966 0 0 1 2.633-6.076 9.008 9.008 0 0 1 12.419-.299V3.832a.75.75 0 0 1 1.5 0v3c0 .58-.47 1.05-1.05 1.05h-3.001a.75.75 0 1 1 0-1.5h1.47Z"/>
      <path d="M21.006 11.908a.75.75 0 0 0-1.5.015A7.47 7.47 0 0 1 17.31 17.3a7.507 7.507 0 0 1-10.278.314h1.272a.75.75 0 0 0 0-1.5H5.3c-.58 0-1.05.47-1.05 1.05v2.999a.75.75 0 0 0 1.5 0v-1.69a9.008 9.008 0 0 0 12.619-.113 8.97 8.97 0 0 0 2.636-6.452Z"/>
    </g>
  </g>
</svg>
